;FLAVOR:UltiGCode
;TIME:1611
;MATERIAL:1608
;MATERIAL2:0
;NOZZLE_DIAMETER:0.4
;Generated with Cura_SteamEngine 4.0.0
M82 ;absolute extrusion mode

G92 E0
G10
;LAYER_COUNT:277
;LAYER:0
M107
G0 F4320 X112.22 Y86.702 Z0.27
;TYPE:SKIRT
G11
G1 F1800 X112.715 Y86.082 E0.07497
G1 X113.271 Y85.516 E0.14995
G1 X113.88 Y85.008 E0.22489
G1 X114.538 Y84.564 E0.29991
G1 X115.237 Y84.188 E0.37491
G1 X115.97 Y83.885 E0.44987
G1 X116.535 Y83.707 E0.50585
G1 X116.762 Y83.645 E0.52808
G1 X117.537 Y83.475 E0.60306
G1 X118.325 Y83.384 E0.67802
G1 X119.119 Y83.372 E0.75306
G1 X119.909 Y83.44 E0.82799
G1 X120.689 Y83.588 E0.90302
G1 X121.45 Y83.813 E0.97801
G1 X122.184 Y84.114 E1.05298
G1 X123.151 Y84.654 E1.15765
G1 X123.406 Y84.821 E1.18645
G1 X124.048 Y85.289 E1.26153
G1 X124.638 Y85.818 E1.33641
G1 X125.173 Y86.405 E1.41147
G1 X125.645 Y87.042 E1.48639
G1 X126.052 Y87.724 E1.56144
G1 X126.387 Y88.443 E1.6364
G1 X126.649 Y89.192 E1.71139
G1 X126.833 Y89.964 E1.78638
G1 X126.939 Y90.75 E1.86133
G1 X126.965 Y91.571 E1.93896
G1 X126.959 Y91.863 E1.96656
G1 X126.903 Y92.654 E2.04149
G1 X126.767 Y93.436 E2.1165
G1 X126.554 Y94.2 E2.19145
G1 X126.369 Y94.697 E2.24157
G1 X126.211 Y95.081 E2.28081
G1 X125.872 Y95.799 E2.35584
G1 X125.463 Y96.479 E2.43083
G1 X124.885 Y97.236 E2.52083
G1 X124.687 Y97.465 E2.54944
G1 X124.139 Y98.038 E2.62437
G1 X123.535 Y98.553 E2.69938
G1 X122.883 Y99.005 E2.77435
G1 X122.188 Y99.389 E2.84938
G1 X121.459 Y99.701 E2.92432
G1 X120.702 Y99.938 E2.99928
G1 X119.924 Y100.098 E3.07434
G1 X119.135 Y100.179 E3.14929
G1 X118.342 Y100.179 E3.22423
G1 X117.552 Y100.1 E3.29926
G1 X116.829 Y99.956 E3.36892
G1 X116.62 Y99.904 E3.38927
G1 X115.86 Y99.674 E3.46431
G1 X115.128 Y99.369 E3.53925
G1 X114.43 Y98.991 E3.61426
G1 X113.774 Y98.545 E3.68922
G1 X113.165 Y98.036 E3.76423
G1 X112.612 Y97.467 E3.83921
G1 X112.118 Y96.846 E3.9142
G1 X111.689 Y96.179 E3.98914
G1 X111.33 Y95.471 E4.06416
G1 X111.043 Y94.731 E4.13916
G1 X110.833 Y93.966 E4.21413
G1 X110.702 Y93.202 E4.28738
G1 X110.616 Y92.487 E4.35544
G1 X110.561 Y91.696 E4.43037
G1 X110.586 Y90.903 E4.50534
G1 X110.691 Y90.116 E4.58037
G1 X110.874 Y89.344 E4.65535
G1 X111.134 Y88.595 E4.73027
G1 X111.469 Y87.875 E4.80532
G1 X112.045 Y86.945 E4.90869
G1 X112.22 Y86.702 E4.93699
G0 F4320 X112.504 Y86.906
G1 F1800 X112.989 Y86.301 E5.01027
G1 X113.534 Y85.749 E5.08357
G1 X114.132 Y85.256 E5.15681
G1 X114.779 Y84.827 E5.23017
G1 X115.466 Y84.467 E5.30347
G1 X116.186 Y84.18 E5.37671
G1 X116.627 Y84.045 E5.4203
G1 X116.854 Y83.983 E5.44253
G1 X117.612 Y83.817 E5.51586
G1 X118.383 Y83.731 E5.58917
G1 X119.158 Y83.724 E5.66241
G1 X119.931 Y83.797 E5.73579
G1 X120.691 Y83.949 E5.80903
G1 X121.432 Y84.179 E5.88235
G1 X122.145 Y84.483 E5.9556
G1 X122.96 Y84.947 E6.04422
G1 X123.215 Y85.114 E6.07303
G1 X123.841 Y85.572 E6.14633
G1 X124.416 Y86.092 E6.21959
G1 X124.936 Y86.668 E6.29292
G1 X125.393 Y87.295 E6.36624
G1 X125.783 Y87.965 E6.4395
G1 X126.102 Y88.672 E6.5128
G1 X126.346 Y89.408 E6.58607
G1 X126.514 Y90.165 E6.65935
G1 X126.602 Y90.936 E6.73268
G1 X126.615 Y91.564 E6.79204
G1 X126.609 Y91.856 E6.81964
G1 X126.554 Y92.629 E6.89287
G1 X126.418 Y93.393 E6.96621
G1 X126.205 Y94.139 E7.03952
G1 X126.045 Y94.564 E7.08243
G1 X125.887 Y94.948 E7.12167
G1 X125.555 Y95.649 E7.19497
G1 X125.153 Y96.313 E7.26832
G1 X124.62 Y97.007 E7.35102
G1 X124.422 Y97.236 E7.37963
G1 X123.885 Y97.796 E7.45294
G1 X123.294 Y98.297 E7.52616
G1 X122.654 Y98.735 E7.59945
G1 X121.972 Y99.105 E7.67277
G1 X121.256 Y99.403 E7.74606
G1 X120.513 Y99.625 E7.81934
G1 X119.751 Y99.769 E7.89262
G1 X118.978 Y99.835 E7.96594
G1 X118.202 Y99.82 E8.03928
G1 X117.432 Y99.726 E8.11259
G1 X116.913 Y99.616 E8.16272
G1 X116.704 Y99.564 E8.18308
G1 X115.962 Y99.339 E8.25635
G1 X115.247 Y99.038 E8.32966
G1 X114.567 Y98.665 E8.40295
G1 X113.929 Y98.224 E8.47624
G1 X113.34 Y97.719 E8.54956
G1 X112.806 Y97.157 E8.62282
G1 X112.332 Y96.543 E8.69612
G1 X111.924 Y95.883 E8.76945
G1 X111.587 Y95.185 E8.8427
G1 X111.323 Y94.455 E8.91605
G1 X111.135 Y93.703 E8.9893
G1 X111.05 Y93.161 E9.04115
G1 X110.964 Y92.446 E9.1092
G1 X110.911 Y91.672 E9.18252
G1 X110.938 Y90.897 E9.2558
G1 X111.045 Y90.128 E9.32917
G1 X111.23 Y89.375 E9.40245
G1 X111.492 Y88.645 E9.47574
G1 X111.828 Y87.946 E9.54903
G1 X112.329 Y87.149 E9.63799
G1 X112.504 Y86.906 E9.66629
G0 F4320 X112.788 Y87.111
G1 F1800 X113.262 Y86.521 E9.73781
G1 X113.796 Y85.984 E9.80938
G1 X114.384 Y85.506 E9.88099
G1 X115.018 Y85.093 E9.95249
G1 X115.693 Y84.749 E10.02408
G1 X116.72 Y84.383 E10.12711
G1 X116.947 Y84.321 E10.14935
G1 X117.687 Y84.16 E10.22092
G1 X118.44 Y84.078 E10.2925
G1 X119.197 Y84.076 E10.36403
G1 X119.95 Y84.154 E10.43557
G1 X120.691 Y84.311 E10.50715
G1 X121.412 Y84.545 E10.57878
G1 X122.103 Y84.854 E10.65031
G1 X122.768 Y85.24 E10.72298
G1 X123.023 Y85.407 E10.75178
G1 X123.634 Y85.854 E10.82332
G1 X124.194 Y86.364 E10.8949
G1 X124.697 Y86.93 E10.96646
G1 X125.138 Y87.546 E11.03805
G1 X125.512 Y88.205 E11.10965
G1 X125.814 Y88.899 E11.18118
G1 X126.041 Y89.622 E11.25279
G1 X126.191 Y90.364 E11.32433
G1 X126.261 Y91.118 E11.39589
G1 X126.265 Y91.556 E11.43728
G1 X126.259 Y91.848 E11.46488
G1 X126.204 Y92.604 E11.53651
G1 X126.069 Y93.349 E11.60806
G1 X125.857 Y94.076 E11.67962
G1 X125.721 Y94.431 E11.71555
G1 X125.563 Y94.815 E11.75479
G1 X125.239 Y95.499 E11.82631
G1 X124.843 Y96.146 E11.89799
G1 X124.356 Y96.778 E11.97339
G1 X124.158 Y97.007 E12.002
G1 X123.633 Y97.553 E12.07358
G1 X123.053 Y98.04 E12.14515
G1 X122.425 Y98.464 E12.21675
G1 X121.757 Y98.819 E12.28824
G1 X121.054 Y99.102 E12.35986
G1 X120.325 Y99.309 E12.43147
G1 X119.579 Y99.439 E12.50303
G1 X118.823 Y99.488 E12.57462
G1 X118.067 Y99.458 E12.64612
G1 X116.998 Y99.277 E12.74858
G1 X116.789 Y99.225 E12.76893
G1 X116.064 Y99.003 E12.84058
G1 X115.367 Y98.707 E12.91214
G1 X114.706 Y98.339 E12.98363
G1 X114.086 Y97.902 E13.05532
G1 X113.517 Y97.404 E13.12677
G1 X113.002 Y96.847 E13.19846
G1 X112.55 Y96.24 E13.26998
G1 X112.164 Y95.589 E13.3415
G1 X111.849 Y94.9 E13.41309
G1 X111.608 Y94.182 E13.48466
G1 X111.397 Y93.119 E13.58708
G1 X111.311 Y92.404 E13.65513
G1 X111.261 Y91.648 E13.72673
G1 X111.29 Y90.891 E13.79832
G1 X111.399 Y90.142 E13.86984
G1 X111.586 Y89.408 E13.94142
G1 X111.85 Y88.698 E14.01301
G1 X112.187 Y88.02 E14.08455
G1 X112.613 Y87.354 E14.15927
G1 X112.788 Y87.111 E14.18756
G0 F4320 X113.072 Y87.316
G1 F1800 X113.535 Y86.74 E14.2574
G1 X114.058 Y86.219 E14.32716
G1 X114.634 Y85.757 E14.39694
G1 X115.257 Y85.359 E14.4668
G1 X115.919 Y85.032 E14.53658
G1 X116.812 Y84.72 E14.62597
G1 X117.039 Y84.658 E14.64821
G1 X117.761 Y84.502 E14.71801
G1 X118.495 Y84.426 E14.78774
G1 X119.234 Y84.429 E14.85758
G1 X119.968 Y84.511 E14.92737
G1 X120.689 Y84.673 E14.99721
G1 X121.388 Y84.912 E15.06702
G1 X122.057 Y85.224 E15.13677
G1 X122.576 Y85.532 E15.19381
G1 X122.831 Y85.699 E15.22261
G1 X123.426 Y86.137 E15.29243
G1 X123.971 Y86.636 E15.36226
G1 X124.458 Y87.191 E15.43204
G1 X124.882 Y87.796 E15.50185
G1 X125.239 Y88.443 E15.57168
G1 X125.523 Y89.125 E15.6415
G1 X125.733 Y89.833 E15.71128
G1 X125.864 Y90.56 E15.78109
G1 X125.916 Y91.549 E15.87468
G1 X125.91 Y91.841 E15.90228
G1 X125.854 Y92.578 E15.97213
G1 X125.72 Y93.304 E16.04189
G1 X125.398 Y94.298 E16.14063
G1 X125.24 Y94.682 E16.17987
G1 X124.922 Y95.349 E16.2497
G1 X124.534 Y95.977 E16.31946
G1 X124.091 Y96.549 E16.38783
G1 X123.893 Y96.778 E16.41644
G1 X123.38 Y97.31 E16.48628
G1 X122.813 Y97.783 E16.55606
G1 X122.198 Y98.192 E16.62585
G1 X121.543 Y98.533 E16.69564
G1 X120.854 Y98.8 E16.76546
G1 X120.141 Y98.992 E16.83524
G1 X119.411 Y99.105 E16.90505
G1 X118.673 Y99.139 E16.97486
G1 X117.936 Y99.093 E17.04465
G1 X117.082 Y98.937 E17.12668
G1 X116.873 Y98.885 E17.14704
G1 X116.167 Y98.668 E17.21683
G1 X115.489 Y98.376 E17.28659
G1 X114.846 Y98.013 E17.35637
G1 X114.246 Y97.582 E17.42618
G1 X113.696 Y97.089 E17.49598
G1 X113.202 Y96.539 E17.56585
G1 X112.771 Y95.939 E17.63566
G1 X112.408 Y95.296 E17.70544
G1 X112.115 Y94.618 E17.77523
G1 X111.898 Y93.912 E17.84503
G1 X111.745 Y93.077 E17.92525
G1 X111.659 Y92.362 E17.99331
G1 X111.61 Y91.625 E18.06311
G1 X111.642 Y90.887 E18.13291
G1 X111.753 Y90.157 E18.20269
G1 X111.942 Y89.443 E18.27249
G1 X112.208 Y88.753 E18.34237
G1 X112.546 Y88.097 E18.41211
G1 X112.897 Y87.559 E18.47281
G1 X113.072 Y87.316 E18.50111
G0 F4320 X113.356 Y87.52
G1 F1800 X113.808 Y86.961 E18.56904
G1 X114.319 Y86.455 E18.637
G1 X114.884 Y86.009 E18.70503
G1 X115.494 Y85.628 E18.77299
G1 X116.143 Y85.317 E18.841
G1 X116.904 Y85.058 E18.91697
G1 X117.131 Y84.996 E18.9392
G1 X117.834 Y84.845 E19.00715
G1 X118.55 Y84.773 E19.07515
G1 X119.27 Y84.781 E19.1432
G1 X119.984 Y84.869 E19.21118
G1 X120.684 Y85.036 E19.27919
G1 X121.361 Y85.279 E19.34716
G1 X122.007 Y85.596 E19.41516
G1 X122.384 Y85.825 E19.45685
G1 X122.639 Y85.992 E19.48565
G1 X123.218 Y86.419 E19.55364
G1 X123.747 Y86.908 E19.62171
G1 X124.217 Y87.452 E19.68965
G1 X124.625 Y88.045 E19.75767
G1 X124.964 Y88.68 E19.8257
G1 X125.23 Y89.348 E19.89364
G1 X125.421 Y90.041 E19.96157
G1 X125.534 Y90.752 E20.02961
G1 X125.566 Y91.542 E20.10432
G1 X125.56 Y91.834 E20.13192
G1 X125.505 Y92.551 E20.19988
G1 X125.371 Y93.258 E20.26788
G1 X125.074 Y94.165 E20.35807
G1 X124.916 Y94.549 E20.39731
G1 X124.606 Y95.198 E20.46528
G1 X124.225 Y95.809 E20.53332
G1 X123.826 Y96.32 E20.59459
G1 X123.628 Y96.549 E20.6232
G1 X123.128 Y97.066 E20.69116
G1 X122.574 Y97.525 E20.75915
G1 X121.972 Y97.919 E20.82714
G1 X121.33 Y98.244 E20.89514
G1 X120.656 Y98.496 E20.96314
G1 X119.958 Y98.671 E21.03114
G1 X119.245 Y98.768 E21.09914
G1 X118.526 Y98.786 E21.16711
G1 X117.81 Y98.723 E21.23503
G1 X117.167 Y98.597 E21.29695
G1 X116.958 Y98.545 E21.3173
G1 X116.27 Y98.333 E21.38534
G1 X115.611 Y98.046 E21.45326
G1 X114.987 Y97.687 E21.52129
G1 X114.407 Y97.262 E21.58924
G1 X113.877 Y96.775 E21.65726
G1 X113.406 Y96.232 E21.72519
G1 X112.997 Y95.64 E21.79318
G1 X112.656 Y95.006 E21.86121
G1 X112.388 Y94.338 E21.92923
G1 X112.195 Y93.645 E21.99721
G1 X112.092 Y93.035 E22.05567
G1 X112.006 Y92.32 E22.12373
G1 X111.96 Y91.602 E22.19172
G1 X111.994 Y90.884 E22.25964
G1 X112.107 Y90.173 E22.32768
G1 X112.299 Y89.48 E22.39563
G1 X112.566 Y88.812 E22.46361
G1 X112.906 Y88.177 E22.53168
G1 X113.181 Y87.763 E22.57865
G1 X113.356 Y87.52 E22.60695
G0 F4320 X113.64 Y87.725
G1 F1800 X114.08 Y87.181 E22.67307
G1 X114.58 Y86.691 E22.73922
G1 X115.133 Y86.262 E22.80536
G1 X115.73 Y85.898 E22.87144
G1 X116.366 Y85.605 E22.93761
G1 X116.996 Y85.395 E23.00037
G1 X117.223 Y85.333 E23.0226
G1 X117.908 Y85.188 E23.08877
G1 X118.604 Y85.121 E23.15485
G1 X119.304 Y85.135 E23.22101
G1 X119.997 Y85.228 E23.28709
G1 X120.676 Y85.399 E23.35326
G1 X121.33 Y85.647 E23.41935
G1 X122.193 Y86.118 E23.51226
G1 X122.448 Y86.285 E23.54107
G1 X123.01 Y86.701 E23.60714
G1 X123.522 Y87.179 E23.67334
G1 X123.975 Y87.712 E23.73944
G1 X124.365 Y88.293 E23.80557
G1 X124.686 Y88.914 E23.87163
G1 X124.934 Y89.569 E23.93781
G1 X125.106 Y90.247 E24.00391
G1 X125.199 Y90.94 E24.06999
G1 X125.216 Y91.535 E24.12624
G1 X125.21 Y91.827 E24.15384
G1 X125.155 Y92.524 E24.21991
G1 X125.022 Y93.211 E24.28604
G1 X124.75 Y94.032 E24.36777
G1 X124.592 Y94.416 E24.40701
G1 X124.289 Y95.046 E24.47307
G1 X123.917 Y95.639 E24.53922
G1 X123.561 Y96.091 E24.59359
G1 X123.363 Y96.32 E24.6222
G1 X122.876 Y96.822 E24.6883
G1 X122.335 Y97.266 E24.75443
G1 X121.747 Y97.645 E24.82054
G1 X121.119 Y97.954 E24.88668
G1 X120.46 Y98.19 E24.95283
G1 X119.779 Y98.349 E25.01892
G1 X119.084 Y98.429 E25.08503
G1 X118.384 Y98.429 E25.15118
G1 X117.689 Y98.35 E25.21728
G1 X117.251 Y98.258 E25.25957
G1 X117.042 Y98.206 E25.27993
G1 X116.374 Y97.998 E25.34604
G1 X115.734 Y97.716 E25.41213
G1 X115.13 Y97.363 E25.47824
G1 X114.57 Y96.942 E25.54445
G1 X114.062 Y96.461 E25.61056
G1 X113.612 Y95.925 E25.6767
G1 X113.227 Y95.342 E25.74272
G1 X112.91 Y94.718 E25.80886
G1 X112.666 Y94.062 E25.875
G1 X112.499 Y93.382 E25.94117
G1 X112.44 Y92.993 E25.97835
G1 X112.354 Y92.278 E26.04641
G1 X112.31 Y91.58 E26.1125
G1 X112.346 Y90.881 E26.17864
G1 X112.462 Y90.191 E26.24476
G1 X112.656 Y89.519 E26.31086
G1 X112.925 Y88.873 E26.37699
G1 X113.266 Y88.262 E26.44311
G1 X113.465 Y87.968 E26.47666
G1 X113.64 Y87.725 E26.50496
G0 F4320 X113.924 Y87.929
G1 F1800 X114.353 Y87.402 E26.56917
G1 X114.84 Y86.929 E26.63333
G1 X115.38 Y86.517 E26.69752
G1 X115.965 Y86.17 E26.76179
G1 X116.586 Y85.895 E26.82597
G1 X117.088 Y85.733 E26.87582
G1 X117.315 Y85.671 E26.89806
G1 X117.98 Y85.531 E26.96228
G1 X118.657 Y85.47 E27.02651
G1 X119.336 Y85.489 E27.09071
G1 X120.008 Y85.587 E27.15488
G1 X120.664 Y85.764 E27.21909
G1 X121.295 Y86.016 E27.2833
G1 X122.001 Y86.411 E27.35975
G1 X122.256 Y86.578 E27.38855
G1 X122.801 Y86.983 E27.45272
G1 X123.296 Y87.449 E27.51696
G1 X123.732 Y87.97 E27.58116
G1 X124.103 Y88.539 E27.64536
G1 X124.406 Y89.147 E27.70955
G1 X124.635 Y89.787 E27.77379
G1 X124.787 Y90.449 E27.83797
G1 X124.86 Y91.125 E27.90223
G1 X124.866 Y91.528 E27.94031
G1 X124.86 Y91.82 E27.96791
G1 X124.806 Y92.497 E28.03209
G1 X124.673 Y93.163 E28.09627
G1 X124.427 Y93.898 E28.16952
G1 X124.269 Y94.282 E28.20876
G1 X123.974 Y94.894 E28.27296
G1 X123.609 Y95.468 E28.33724
G1 X123.297 Y95.862 E28.38473
G1 X123.099 Y96.091 E28.41334
G1 X122.625 Y96.578 E28.47756
G1 X122.097 Y97.006 E28.54179
G1 X121.523 Y97.369 E28.60597
G1 X120.91 Y97.662 E28.67018
G1 X120.266 Y97.881 E28.73446
G1 X119.602 Y98.023 E28.79863
G1 X118.926 Y98.086 E28.86278
G1 X118.246 Y98.069 E28.92706
G1 X117.336 Y97.918 E29.01424
G1 X117.127 Y97.866 E29.03459
G1 X116.478 Y97.664 E29.09882
G1 X115.858 Y97.386 E29.16303
G1 X115.275 Y97.038 E29.22719
G1 X114.736 Y96.624 E29.29142
G1 X114.25 Y96.149 E29.35564
G1 X113.823 Y95.621 E29.41981
G1 X113.461 Y95.046 E29.48402
G1 X113.169 Y94.432 E29.54827
G1 X112.951 Y93.789 E29.61243
G1 X112.787 Y92.952 E29.69303
G1 X112.701 Y92.237 E29.76109
G1 X112.66 Y91.558 E29.82537
G1 X112.699 Y90.88 E29.88954
G1 X112.817 Y90.211 E29.95374
G1 X113.012 Y89.56 E30.01796
G1 X113.283 Y88.937 E30.08216
G1 X113.749 Y88.172 E30.16681
G1 X113.924 Y87.929 E30.19511
G0 F4320 X114.208 Y88.134
G1 F1800 X114.624 Y87.624 E30.25731
G1 X115.1 Y87.168 E30.3196
G1 X115.627 Y86.773 E30.38184
G1 X116.197 Y86.445 E30.44398
G1 X116.804 Y86.188 E30.50627
G1 X117.181 Y86.071 E30.54358
G1 X117.408 Y86.009 E30.56581
G1 X118.052 Y85.874 E30.62799
G1 X118.708 Y85.819 E30.6902
G1 X119.366 Y85.843 E30.75243
G1 X120.017 Y85.947 E30.81473
G1 X120.649 Y86.129 E30.87688
G1 X121.256 Y86.386 E30.93917
G1 X121.809 Y86.704 E30.99945
G1 X122.064 Y86.871 E31.02826
G1 X122.592 Y87.264 E31.09046
G1 X123.069 Y87.719 E31.15275
G1 X123.486 Y88.228 E31.21493
G1 X123.839 Y88.784 E31.27717
G1 X124.122 Y89.378 E31.33935
G1 X124.332 Y90.002 E31.40157
G1 X124.463 Y90.648 E31.46385
G1 X124.516 Y91.52 E31.54641
G1 X124.51 Y91.812 E31.57401
G1 X124.456 Y92.469 E31.63631
G1 X124.324 Y93.114 E31.69852
G1 X124.103 Y93.765 E31.76349
G1 X123.945 Y94.149 E31.80273
G1 X123.658 Y94.742 E31.86499
G1 X123.301 Y95.295 E31.92719
G1 X123.032 Y95.633 E31.96801
G1 X122.834 Y95.862 E31.99662
G1 X122.374 Y96.333 E32.05883
G1 X121.86 Y96.745 E32.12108
G1 X121.3 Y97.092 E32.18334
G1 X120.702 Y97.368 E32.24558
G1 X120.075 Y97.57 E32.30783
G1 X119.429 Y97.694 E32.36999
G1 X118.772 Y97.739 E32.43222
G1 X118.114 Y97.704 E32.49449
G1 X117.42 Y97.579 E32.56113
G1 X117.211 Y97.527 E32.58148
G1 X116.583 Y97.329 E32.64371
G1 X115.983 Y97.057 E32.70596
G1 X115.421 Y96.714 E32.76818
G1 X114.905 Y96.306 E32.83035
G1 X114.441 Y95.838 E32.89262
G1 X114.038 Y95.317 E32.95487
G1 X113.701 Y94.752 E33.01704
G1 X113.435 Y94.149 E33.07932
G1 X113.244 Y93.519 E33.14153
G1 X113.135 Y92.91 E33.2
G1 X113.049 Y92.195 E33.26805
G1 X113.01 Y91.538 E33.33025
G1 X113.051 Y90.88 E33.39255
G1 X113.172 Y90.233 E33.45475
G1 X113.37 Y89.605 E33.51697
G1 X113.642 Y89.006 E33.57914
G1 X114.033 Y88.377 E33.64913
G1 X114.208 Y88.134 E33.67743
G0 F4320 X114.492 Y88.338
G1 F1800 X114.896 Y87.846 E33.73759
G1 X115.358 Y87.408 E33.79775
G1 X115.872 Y87.031 E33.85799
G1 X116.428 Y86.722 E33.9181
