;FLAVOR:UltiGCode
;TIME:946
;MATERIAL:1007
;MATERIAL2:0
;NOZZLE_DIAMETER:0.4
;Generated with Cura_SteamEngine 4.0.0
M82 ;absolute extrusion mode

G92 E0
G10
;LAYER_COUNT:60
;LAYER:0
M107
G0 F4320 X88.682 Y86.435 Z0.27
;TYPE:SKIRT
G11
G1 F1800 X89.064 Y86.067 E0.05012
G1 X89.311 Y85.88 E0.0794
G1 X89.941 Y85.446 E0.1517
G1 X90.4 Y85.179 E0.20188
G1 X90.951 Y84.966 E0.2577
G1 X91.255 Y84.877 E0.28763
G1 X91.774 Y84.767 E0.33777
G1 X92.329 Y84.736 E0.3903
G1 X93.129 Y84.755 E0.46592
G1 X93.657 Y84.807 E0.51606
G1 X94.293 Y84.982 E0.57839
G1 X99.496 Y86.951 E1.10411
G1 X104.734 Y88.63 E1.62391
G1 X109.423 Y89.905 E2.08311
G1 X109.923 Y90.082 E2.13323
G1 X110.391 Y90.332 E2.18337
G1 X110.816 Y90.65 E2.23353
G1 X111.184 Y91.023 E2.28305
G1 X112.819 Y92.947 E2.52165
G1 X113.131 Y93.376 E2.57177
G1 X113.374 Y93.843 E2.62152
G1 X115.138 Y97.965 E3.04522
G1 X117.507 Y102.891 E3.56176
G1 X120.147 Y107.671 E4.07779
G1 X123.057 Y112.298 E4.59433
G1 X126.203 Y116.724 E5.10748
G1 X132.64 Y124.674 E6.07414
G1 X132.885 Y125.017 E6.11397
G1 X134.6 Y127.748 E6.41872
G1 X134.848 Y128.218 E6.46894
G1 X134.977 Y128.564 E6.50384
G1 X135.491 Y130.196 E6.66553
G1 X135.563 Y130.459 E6.6913
G1 X136.231 Y133.339 E6.97068
G1 X136.311 Y133.863 E7.02077
G1 X136.317 Y134.319 E7.06387
G1 X136.286 Y134.911 E7.11989
G1 X136.219 Y135.438 E7.17009
G1 X136.073 Y135.948 E7.22022
G1 X135.852 Y136.43 E7.27033
G1 X135.561 Y136.874 E7.3205
G1 X135.207 Y137.27 E7.37069
G1 X134.731 Y137.653 E7.42843
G1 X134.457 Y137.837 E7.45962
G1 X133.996 Y138.099 E7.50973
G1 X133.5 Y138.289 E7.55992
G1 X132.981 Y138.402 E7.61011
G1 X132.452 Y138.436 E7.66021
G1 X131.923 Y138.39 E7.71039
G1 X131.428 Y138.271 E7.7585
G1 X130.806 Y138.074 E7.82015
G1 X130.313 Y137.877 E7.87032
G1 X129.856 Y137.607 E7.92049
G1 X129.592 Y137.404 E7.95196
G1 X128.462 Y136.447 E8.09189
G1 X128.109 Y136.103 E8.13847
G1 X127.168 Y135.048 E8.27206
G1 X123.073 Y130.576 E8.84508
G1 X119.165 Y126.791 E9.3592
G1 X115.034 Y123.222 E9.8751
G1 X110.7 Y119.885 E10.392
G1 X106.203 Y116.811 E10.90676
G1 X101.54 Y113.998 E11.42139
G1 X96.663 Y111.417 E11.94282
G1 X94.911 Y110.565 E12.12693
G1 X94.453 Y110.297 E12.17707
G1 X94.094 Y110.014 E12.22027
G1 X93.057 Y109.08 E12.35216
G1 X92.619 Y108.606 E12.41315
G1 X91.64 Y107.329 E12.56521
G1 X91.349 Y106.884 E12.61545
G1 X91.129 Y106.402 E12.66552
G1 X90.976 Y105.85 E12.71965
G1 X89.923 Y100.379 E13.24615
G1 X89.297 Y97.729 E13.50347
G1 X88.601 Y95.114 E13.75919
G1 X87.504 Y91.464 E14.11935
G1 X87.382 Y90.883 E14.17546
G1 X87.317 Y90.359 E14.22535
G1 X87.291 Y89.829 E14.2755
G1 X87.365 Y89.202 E14.33516
G1 X87.483 Y88.639 E14.38952
G1 X87.631 Y88.129 E14.4397
G1 X87.981 Y87.435 E14.51316
G1 X88.359 Y86.856 E14.5785
G1 X88.682 Y86.435 E14.62864
G0 F4320 X88.96 Y86.649
G1 F1800 X89.51 Y86.168 E14.69769
G1 X90.14 Y85.734 E14.76999
G1 X90.576 Y85.482 E14.81757
G1 X91.049 Y85.302 E14.8654
G1 X91.353 Y85.213 E14.89533
G1 X91.846 Y85.11 E14.94293
G1 X92.32 Y85.086 E14.98778
G1 X93.12 Y85.105 E15.0634
G1 X93.621 Y85.157 E15.111
G1 X94.169 Y85.31 E15.16477
G1 X99.364 Y87.276 E15.68967
G1 X104.625 Y88.962 E16.21174
G1 X109.331 Y90.242 E16.67262
G1 X109.805 Y90.413 E16.72023
G1 X110.246 Y90.656 E16.76782
G1 X110.643 Y90.965 E16.81536
G1 X110.917 Y91.25 E16.85272
G1 X112.552 Y93.174 E17.09132
G1 X112.847 Y93.582 E17.1389
G1 X113.052 Y93.981 E17.18129
G1 X114.818 Y98.108 E17.6055
G1 X117.197 Y103.056 E18.12432
G1 X119.842 Y107.844 E18.64124
G1 X122.758 Y112.481 E19.15888
G1 X125.929 Y116.942 E19.67609
G1 X132.368 Y124.894 E20.64302
G1 X132.589 Y125.204 E20.679
G1 X134.304 Y127.935 E20.98375
G1 X134.537 Y128.381 E21.0313
G1 X134.643 Y128.669 E21.0603
G1 X135.157 Y130.301 E21.22199
G1 X135.222 Y130.538 E21.24522
G1 X135.89 Y133.418 E21.5246
G1 X135.964 Y133.916 E21.57218
G1 X135.968 Y134.301 E21.60856
G1 X135.937 Y134.893 E21.66458
G1 X135.871 Y135.392 E21.71215
G1 X135.726 Y135.875 E21.75981
G1 X135.508 Y136.328 E21.80731
G1 X135.22 Y136.742 E21.85497
G1 X134.87 Y137.104 E21.90255
G1 X134.536 Y137.363 E21.9425
G1 X134.262 Y137.547 E21.97369
G1 X133.823 Y137.794 E22.02129
G1 X133.351 Y137.968 E22.06882
G1 X132.856 Y138.065 E22.11649
G1 X132.353 Y138.083 E22.16406
G1 X131.853 Y138.021 E22.21167
G1 X131.533 Y137.938 E22.24291
G1 X130.911 Y137.741 E22.30456
G1 X130.445 Y137.551 E22.35212
G1 X129.818 Y137.137 E22.42312
G1 X128.688 Y136.18 E22.56306
G1 X128.371 Y135.87 E22.60496
G1 X127.457 Y134.846 E22.73467
G1 X123.327 Y130.335 E23.31263
G1 X119.389 Y126.523 E23.83057
G1 X115.247 Y122.944 E24.34787
G1 X110.922 Y119.612 E24.86381
G1 X106.396 Y116.519 E25.38185
G1 X101.694 Y113.683 E25.90075
G1 X96.835 Y111.112 E26.42024
G1 X95.064 Y110.25 E26.60637
G1 X94.63 Y109.995 E26.65394
G1 X94.328 Y109.754 E26.69046
G1 X93.291 Y108.82 E26.82234
G1 X92.896 Y108.393 E26.87731
G1 X91.917 Y107.116 E27.02937
G1 X91.644 Y106.693 E27.07694
G1 X91.44 Y106.232 E27.12458
G1 X91.319 Y105.784 E27.16844
G1 X90.259 Y100.277 E27.6984
G1 X89.643 Y97.668 E27.95173
G1 X88.937 Y95.015 E28.21116
G1 X87.839 Y91.363 E28.57154
G1 X87.729 Y90.84 E28.62204
G1 X87.664 Y90.316 E28.67194
G1 X87.642 Y89.813 E28.71952
G1 X87.708 Y89.274 E28.77084
G1 X87.826 Y88.711 E28.8252
G1 X87.968 Y88.228 E28.87277
G1 X88.274 Y87.626 E28.93659
G1 X88.652 Y87.047 E29.00193
G1 X88.96 Y86.649 E29.04949
G0 F4320 X91.468 Y88.855
;TYPE:SUPPORT
G1 F1800 X91.711 Y88.658 E29.07905
G1 X91.968 Y88.517 E29.10675
G1 X92.146 Y88.452 E29.12466
G1 X92.324 Y88.412 E29.1419
G1 X92.731 Y88.391 E29.18041
G1 X92.973 Y88.43 E29.20358
G1 X93.241 Y88.511 E29.23003
G1 X93.612 Y88.715 E29.27004
G1 X93.946 Y89.026 E29.31317
G1 X94.194 Y89.423 E29.35741
G1 X94.379 Y89.994 E29.41413
G1 X95.824 Y91.205 E29.59229
G1 X97.247 Y92.547 E29.77713
G1 X98.872 Y94.403 E30.01025
G1 X99.203 Y94.52 E30.04343
G1 X101.949 Y97.918 E30.45628
G1 X102.325 Y97.943 E30.49189
G1 X102.345 Y97.968 E30.49492
G1 X102.854 Y97.987 E30.54305
G1 X104.647 Y96.068 E30.79124
G1 X105.44 Y95.286 E30.89649
G1 X105.741 Y95.102 E30.92982
G1 X106.825 Y94.059 E31.07198
G1 X107.232 Y93.7 E31.12327
G1 X107.513 Y93.48 E31.15699
G1 X107.758 Y93.337 E31.1838
G1 X107.883 Y93.301 E31.19609
G1 X107.942 Y93.301 E31.20167
G1 X108.403 Y93.449 E31.24742
G1 X109.733 Y95.001 E31.44057
G1 X110.049 Y95.392 E31.48808
G1 X110.074 Y95.458 E31.49475
G1 X110.08 Y95.492 E31.49801
G1 X110.064 Y95.632 E31.51133
G1 X110.016 Y95.736 E31.52215
G1 X109.351 Y96.402 E31.61109
G1 X109.262 Y96.847 E31.65398
G1 X109.741 Y97.992 E31.77127
G1 X109.732 Y98.355 E31.80558
G1 X109.291 Y98.736 E31.86065
G1 X109.084 Y98.875 E31.88422
G1 X106.915 Y99.91 E32.11133
G1 X106.796 Y100.414 E32.16026
G1 X108.752 Y102.922 E32.46083
G1 X109.053 Y103.088 E32.49331
G1 X110.083 Y104.417 E32.6522
G1 X110.387 Y104.584 E32.68498
G1 X111.389 Y105.875 E32.83941
G1 X111.689 Y106.039 E32.87172
G1 X112.691 Y107.334 E33.02646
G1 X112.996 Y107.507 E33.05959
G1 X114.018 Y108.834 E33.21788
G1 X114.325 Y109.005 E33.25108
G1 X115.304 Y110.284 E33.40329
G1 X115.605 Y110.46 E33.43624
G1 X116.577 Y111.72 E33.58663
G1 X116.871 Y111.896 E33.61901
G1 X117.834 Y113.171 E33.77
G1 X118.137 Y113.344 E33.80297
G1 X119.076 Y114.595 E33.95079
G1 X119.371 Y114.773 E33.98335
G1 X120.33 Y116.05 E34.13426
G1 X120.63 Y116.223 E34.16699
G1 X121.542 Y117.43 E34.30995
G1 X121.841 Y117.618 E34.34333
G1 X122.755 Y118.841 E34.48761
G1 X123.052 Y119.019 E34.52033
G1 X123.982 Y120.261 E34.66696
G1 X124.263 Y120.437 E34.69829
G1 X125.152 Y121.625 E34.83851
G1 X125.45 Y121.802 E34.87126
G1 X126.301 Y122.965 E35.00745
G1 X126.598 Y123.148 E35.04041
G1 X127.441 Y124.305 E35.17569
G1 X127.738 Y124.498 E35.20917
G1 X128.5 Y125.536 E35.33085
G1 X128.764 Y125.736 E35.36215
G1 X129.498 Y126.776 E35.48244
G1 X129.79 Y127.022 E35.51852
G1 X130.456 Y128.034 E35.63301
G1 X130.66 Y128.267 E35.66227
G1 X131.46 Y129.684 E35.81605
G1 X131.837 Y131.077 E35.95242
G1 X131.99 Y131.379 E35.98441
G1 X132.047 Y131.848 E36.02906
G1 X132.086 Y133.018 E36.13969
G1 X132.494 Y133.596 E36.20654
G1 X132.501 Y133.799 E36.22574
G1 X132.628 Y134.096 E36.25626
G1 X132.632 Y134.353 E36.28055
G1 X132.609 Y134.633 E36.3071
G1 X132.459 Y134.734 E36.32419
G1 X132.203 Y134.671 E36.34911
G1 X131.964 Y134.575 E36.37345
G1 X131.51 Y134.114 E36.43459
G1 X131.435 Y134.081 E36.44233
G1 X131.219 Y133.803 E36.4756
G1 X130.882 Y133.638 E36.51106
G1 X130.862 Y133.516 E36.52274
G1 X130.631 Y133.162 E36.56269
G1 X130.357 Y132.984 E36.59356
G1 X130.167 Y132.66 E36.62906
G1 X129.954 Y132.536 E36.65235
G1 X129.792 Y132.23 E36.68507
G1 X129.462 Y132.01 E36.72255
G1 X129.309 Y131.699 E36.7553
G1 X128.953 Y131.463 E36.79567
G1 X128.798 Y131.163 E36.82758
G1 X128.476 Y130.921 E36.86564
G1 X128.337 Y130.59 E36.89957
G1 X127.831 Y130.215 E36.95908
G1 X127.691 Y129.899 E36.99174
G1 X127.204 Y129.538 E37.04903
G1 X127.077 Y129.221 E37.0813
G1 X126.53 Y128.783 E37.14752
G1 X126.399 Y128.448 E37.18152
G1 X125.787 Y127.953 E37.2559
G1 X125.647 Y127.631 E37.28908
G1 X125.001 Y127.083 E37.36913
G1 X124.876 Y126.754 E37.40239
G1 X124.136 Y126.122 E37.49435
G1 X124.004 Y125.796 E37.52759
G1 X123.247 Y125.129 E37.62294
G1 X123.131 Y124.803 E37.65563
G1 X122.247 Y124.018 E37.76736
G1 X122.117 Y123.693 E37.80043
G1 X121.244 Y122.898 E37.91201
G1 X121.126 Y122.563 E37.94558
G1 X120.131 Y121.664 E38.0723
G1 X120.011 Y121.336 E38.10531
G1 X119.001 Y120.405 E38.23511
G1 X118.888 Y120.076 E38.26799
G1 X117.86 Y119.121 E38.40058
G1 X117.744 Y118.793 E38.43346
G1 X116.639 Y117.766 E38.57602
G1 X116.521 Y117.434 E38.60932
G1 X115.373 Y116.361 E38.75781
G1 X115.262 Y116.026 E38.79116
G1 X114.104 Y114.934 E38.94158
G1 X113.992 Y114.602 E38.97469
G1 X112.79 Y113.471 E39.13065
G1 X112.679 Y113.138 E39.16382
G1 X111.466 Y111.994 E39.32139
G1 X111.359 Y111.661 E39.35444
G1 X110.129 Y110.502 E39.51415
G1 X110.022 Y110.172 E39.54693
G1 X108.796 Y109.015 E39.70624
G1 X108.692 Y108.687 E39.73875
G1 X107.445 Y107.51 E39.9008
G1 X107.337 Y107.169 E39.9346
G1 X104.463 Y104.459 E40.30789
G1 X103.054 Y104.276 E40.44216
G1 X103.217 Y104.276 E40.45756
G1 X103.833 Y103.66 E40.53989
G1 X103.833 Y100.483 E40.84011
G1 X103.217 Y99.867 E40.92244
G1 X102.195 Y99.867 E41.01902
G1 X101.868 Y99.894 E41.05002
G1 X101.352 Y100.037 E41.10062
G1 X100.931 Y100.604 E41.16736
G1 X100.931 Y100.623 E41.16916
G1 X100.837 Y100.65 E41.1784
G1 X100.698 Y100.837 E41.20042
G1 X100.698 Y103.31 E41.43412
G1 X100.838 Y103.496 E41.45612
G1 X100.931 Y103.523 E41.46527
G1 X100.931 Y103.54 E41.46687
G1 X101.35 Y104.101 E41.53304
G1 X101.812 Y104.237 E41.57855
G1 X101.339 Y104.185 E41.62352
G1 X100.935 Y104.362 E41.6652
G1 X100.598 Y104.817 E41.71871
G1 X99.127 Y105.423 E41.86905
G1 X98.861 Y105.779 E41.91105
G1 X98.818 Y106.181 E41.94925
G1 X98.713 Y106.211 E41.95957
G1 X98.495 Y106.483 E41.99252
G1 X98.418 Y106.494 E41.99987
G1 X98.186 Y106.714 E42.03008
G1 X97.671 Y106.791 E42.07929
G1 X97.326 Y107.072 E42.12134
G1 X97.246 Y107.291 E42.14337
G1 X96.974 Y107.328 E42.16931
G1 X96.794 Y107.33 E42.18632
G1 X96.629 Y107.303 E42.20212
G1 X96.539 Y107.253 E42.21185
G1 X95.544 Y106.354 E42.33857
G1 X94.622 Y105.198 E42.47831
G1 X94.595 Y105.133 E42.48496
G1 X94.579 Y105.028 E42.49499
G1 X94.588 Y104.971 E42.50045
G1 X94.712 Y104.755 E42.52398
G1 X94.901 Y104.546 E42.55061
G1 X95.176 Y104.31 E42.58486
G1 X95.233 Y104.25 E42.59268
G1 X95.454 Y104.101 E42.61787
G1 X97.252 Y102.58 E42.84042
G1 X97.471 Y102.288 E42.87491
G1 X99.19 Y100.642 E43.09982
G1 X99.196 Y100.146 E43.14669
G1 X97.463 Y98.394 E43.37957
G1 X97.419 Y98.043 E43.413
G1 X95.84 Y96.511 E43.62091
G1 X94.514 Y95.058 E43.8068
G1 X93.286 Y93.472 E43.99635
G1 X92.155 Y91.873 E44.18143
G1 X91.615 Y91.619 E44.23783
G1 X91.208 Y90.841 E44.3208
G1 X91.056 Y90.473 E44.35842
G1 X91.042 Y90.422 E44.36342
G1 X90.98 Y89.936 E44.40972
G1 X90.99 Y89.852 E44.41772
G1 X91.095 Y89.391 E44.4624
G1 X91.283 Y89.073 E44.49731
G1 X91.468 Y88.855 E44.52432
G10
G0 F4320 X101.459 Y103.944
G0 X102.062 Y104.265
G11
G1 F1800 X102.194 Y104.276 E44.53684
G1 X102.438 Y104.276 E44.5599
G1 X102.335 Y104.295 E44.5698
G1 X102.062 Y104.265 E44.59575
G0 F4320 X100.319 Y104.78
G1 F1800 X100.319 Y96.124 E45.41374
G0 F4320 X99.939 Y95.653
G1 F1800 X95.246 Y95.653 E45.85723
G0 F4320 X95.653 Y96.098
G1 F1800 X95.653 Y91.245 E46.31584
G0 F4320 X95.347 Y90.987
G1 F1800 X91.442 Y90.987 E46.68486
G0 F4320 X92.009 Y88.654
G1 F1800 X93.212 Y88.654 E46.79855
G0 F4320 X93.32 Y88.714
G1 F1800 X93.32 Y93.277 E47.22975
G0 F4320 X93.35 Y93.32
G1 F1800 X97.738 Y93.32 E47.64442
G0 F4320 X97.986 Y93.605
G1 F1800 X97.986 Y98.723 E48.12807
G0 F4320 X97.553 Y97.986
G1 F1800 X101.824 Y97.986 E48.53168
G0 F4320 X102.652 Y98.12
G1 F1800 X102.652 Y99.727 E48.68354
G0 F4320 X103.866 Y100.319
G1 F1800 X106.674 Y100.319 E48.94889
G0 F4320 X107.318 Y99.563
G1 F1800 X107.318 Y93.811 E49.49246
G0 F4320 X109.651 Y95.122
G1 F1800 X109.651 Y95.904 E49.56636
G0 F4320 X109.9 Y95.653
G1 F1800 X105.268 Y95.653 E50.00408
G0 F4320 X104.985 Y95.932
G1 F1800 X104.985 Y104.758 E50.83814
G0 F4320 X105.224 Y104.985
G1 F1800 X110.521 Y104.985 E51.3387
G0 F4320 X109.651 Y104.088
G1 F1800 X109.651 Y109.628 E51.86223
G0 F4320 X109.674 Y109.651
G1 F1800 X114.644 Y109.651 E52.3319
G0 F4320 X114.317 Y109.225
G1 F1800 X114.317 Y114.941 E52.87206
G0 F4320 X113.894 Y114.317
G1 F1800 X118.693 Y114.317 E53.32557
G0 F4320 X118.983 Y114.703
G1 F1800 X118.983 Y119.974 E53.82368
G0 F4320 X117.959 Y118.983
G1 F1800 X122.72 Y118.983 E54.27359
G0 F4320 X123.649 Y120.051
G1 F1800 X123.649 Y125.296 E54.76924
G0 F4320 X124.23 Y125.982
G1 F1800 X128.767 Y125.982 E55.19799
G0 F4320 X128.315 Y125.521
G1 F1800 X128.315 Y130.398 E55.65887
G0 F4320 X128.513 Y130.648
G1 F1800 X131.576 Y130.648 E55.94832
G0 F4320 X130.648 Y128.53
G1 F1800 X130.648 Y133.005 E56.37121
G0 F4320 X130.608 Y132.981
G1 F1800 X131.946 Y132.981 E56.49765
G0 F4320 X130.517 Y128.315
G1 F1800 X126.457 Y128.315 E56.88132
G0 F4320 X125.982 Y127.931
G1 F1800 X125.982 Y122.767 E57.36932
G0 F4320 X126.79 Y123.649
G1 F1800 X122.249 Y123.649 E57.79844
G0 F4320 X121.316 Y122.681
G1 F1800 X121.316 Y117.364 E58.3009
G0 F4320 X120.779 Y116.65
G1 F1800 X115.887 Y116.65 E58.76319
G0 F4320 X116.65 Y117.377
G1 F1800 X116.65 Y111.926 E59.27831
G0 F4320 X116.748 Y111.984
G1 F1800 X111.659 Y111.984 E59.75922
G0 F4320 X111.984 Y112.29
G1 F1800 X111.984 Y106.65 E60.2922
G0 F4320 X112.502 Y107.318
G1 F1800 X107.531 Y107.318 E60.76196
G0 F4320 X107.318 Y106.959
G1 F1800 X107.318 Y101.311 E61.2957
G0 F4320 X108.365 Y102.652
G1 F1800 X103.973 Y102.652 E61.71074
G10
G0 F4320 X103.65 Y103.585
G0 X103.142 Y104.093
G0 X101.878 Y104.069
G0 X101.501 Y103.957
G0 X100.558 Y102.652
G11
G1 F1800 X97.374 Y102.652 E62.01163
G0 F4320 X97.986 Y101.989
G1 F1800 X97.986 Y106.603 E62.44765
G0 F4320 X95.653 Y106.264
G1 F1800 X95.653 Y104.115 E62.65073
G0 F4320 X94.742 Y104.985
G1 F1800 X99.821 Y104.985 E63.1307
G0 F4320 X99.335 Y100.319
G1 F1800 X100.967 Y100.319 E63.28492
G0 F4320 X103.046 Y97.986
G1 F1800 X109.588 Y97.986 E63.90314
G0 F4320 X120.151 Y121.316
G1 F1800 X124.746 Y121.316 E64.33737
G10
;MESH:solairsword.stl
G0 F4320 X103.654 Y102.887
G0 X102.444 Y102.887
G0 X102.388 Y102.831
G0 X102.458 Y102.901
;TYPE:WALL-INNER
G11
G1 F1800 X102.306 Y102.901 E64.35173
G1 X102.306 Y101.242 E64.50851
G1 X102.458 Y101.242 E64.52287
G1 X102.458 Y102.901 E64.59096
G0 F4320 X102.783 Y103.226
;TYPE:WALL-OUTER
G1 F1800 X102.241 Y103.226 E64.64218
G1 X102.046 Y103.211 E64.66066
G1 X101.981 Y103.192 E64.66706
G1 X101.981 Y100.952 E64.87874
G1 X102.046 Y100.933 E64.88514
G1 X102.242 Y100.917 E64.90372
G1 X102.783 Y100.917 E64.95485
G1 X102.783 Y103.226 E65.17305
G0 F4320 X102.583 Y103.226
G10
;MESH:NONMESH
G0 X102.388 Y102.831
G0 X102.32 Y101.256
G0 X101.9 Y100.071
G0 X90.987 Y90.01
;TIME_ELAPSED:30.889920
;LAYER:1
M106 S255
G0 F5760 X90.987 Y90.01 Z0.52
;TYPE:SUPPORT
G11
G1 F1800 X91.043 Y90.425 E65.20969
G1 X91.055 Y90.47 E65.21376
G1 X91.209 Y90.843 E65.24907
G1 X91.615 Y91.619 E65.3257
G1 X92.156 Y91.873 E65.378
G1 X93.278 Y93.46 E65.54806
G1 X93.292 Y93.483 E65.55042
G1 X93.32 Y93.519 E65.55441
G1 X93.32 Y88.555 E65.98876
